common/src/main/resources/icons/general/alpha.svg

<!--
  - The MIT License (MIT)
  -
  - Copyright (c) 2015-2024 Elior "Mallowigi" Boukhobza
  -
  - Permission is hereby granted, free of charge, to any person obtaining a copy
  - of this software and associated documentation files (the "Software"), to deal
  - in the Software without restriction, including without limitation the rights
  - to use, copy, modify, merge, publish, distribute, sublicense, and/or sell
  - copies of the Software, and to permit persons to whom the Software is
  - furnished to do so, subject to the following conditions:
  -
  - The above copyright notice and this permission notice shall be included in all
  - copies or substantial portions of the Software.
  -
  - THE SOFTWARE IS PROVIDED "AS IS", WITHOUT WARRANTY OF ANY KIND, EXPRESS OR
  - IMPLIED, INCLUDING BUT NOT LIMITED TO THE WARRANTIES OF MERCHANTABILITY,
  - FITNESS FOR A PARTICULAR PURPOSE AND NONINFRINGEMENT. IN NO EVENT SHALL THE
  - AUTHORS OR COPYRIGHT HOLDERS BE LIABLE FOR ANY CLAIM, DAMAGES OR OTHER
  - LIABILITY, WHETHER IN AN ACTION OF CONTRACT, TORT OR OTHERWISE, ARISING FROM,
  - OUT OF OR IN CONNECTION WITH THE SOFTWARE OR THE USE OR OTHER DEALINGS IN THE
  - SOFTWARE.
  -->
<svg width="38" height="15" viewBox="0 0 38 15" fill="none" xmlns="http://www.w3.org/2000/svg">
  <defs>
    <mask id='Mask'>
      <rect x="1" y="1" width="36" height="13" rx="2" fill="white"/>
      <path
        d="M6.41335 11H5.24858L7.86577 3.72727H9.13352L11.7507 11H10.5859L8.52983 5.0483H8.47301L6.41335 11ZM6.60866 8.15199H10.3871V9.07528H6.60866V8.15199ZM13.7775 3.72727V11H12.7157V3.72727H13.7775ZM15.206 13.0455V5.54545H16.2429V6.42969H16.3317C16.3932 6.31605 16.482 6.18466 16.598 6.03551C16.714 5.88636 16.875 5.75616 17.081 5.64489C17.2869 5.53125 17.5592 5.47443 17.8977 5.47443C18.3381 5.47443 18.7311 5.5857 19.0767 5.80824C19.4223 6.03078 19.6934 6.35156 19.8899 6.7706C20.0888 7.18963 20.1882 7.69389 20.1882 8.28338C20.1882 8.87287 20.09 9.37831 19.8935 9.79972C19.697 10.2187 19.4271 10.5419 19.0838 10.7692C18.7405 10.9941 18.3487 11.1065 17.9084 11.1065C17.5769 11.1065 17.3059 11.0509 17.0952 10.9396C16.8868 10.8284 16.7235 10.6982 16.6051 10.549C16.4867 10.3999 16.3956 10.2673 16.3317 10.1513H16.2678V13.0455H15.206ZM16.2464 8.27273C16.2464 8.65625 16.3021 8.99242 16.4134 9.28125C16.5246 9.57008 16.6856 9.79616 16.8963 9.95952C17.107 10.1205 17.3651 10.201 17.6705 10.201C17.9877 10.201 18.2528 10.117 18.4659 9.94886C18.679 9.77841 18.84 9.54759 18.9489 9.25639C19.0601 8.9652 19.1158 8.63731 19.1158 8.27273C19.1158 7.91288 19.0613 7.58973 18.9524 7.30327C18.8459 7.01681 18.6849 6.79072 18.4695 6.625C18.2564 6.45928 17.9901 6.37642 17.6705 6.37642C17.3627 6.37642 17.1023 6.45573 16.8892 6.61435C16.6785 6.77296 16.5187 6.99432 16.4098 7.27841C16.3009 7.5625 16.2464 7.89394 16.2464 8.27273ZM22.4396 7.76136V11H21.3778V3.72727H22.4254V6.43324H22.4929C22.6207 6.13968 22.8161 5.90649 23.0788 5.73366C23.3416 5.56084 23.6849 5.47443 24.1087 5.47443C24.4827 5.47443 24.8094 5.55137 25.0888 5.70526C25.3705 5.85914 25.5883 6.08878 25.7422 6.39418C25.8984 6.69721 25.9766 7.07599 25.9766 7.53054V11H24.9148V7.65838C24.9148 7.25829 24.8118 6.94815 24.6058 6.72798C24.3999 6.50544 24.1134 6.39418 23.7464 6.39418C23.4955 6.39418 23.2706 6.44744 23.0717 6.55398C22.8752 6.66051 22.7202 6.81676 22.6065 7.02273C22.4953 7.22633 22.4396 7.47254 22.4396 7.76136ZM28.9808 11.1207C28.6352 11.1207 28.3227 11.0568 28.0433 10.929C27.764 10.7988 27.5426 10.6106 27.3793 10.3643C27.2183 10.1181 27.1378 9.81629 27.1378 9.45881C27.1378 9.15104 27.197 8.89773 27.3153 8.69886C27.4337 8.5 27.5935 8.34257 27.7947 8.22656C27.996 8.11056 28.2209 8.02296 28.4695 7.96378C28.718 7.90459 28.9714 7.85961 29.2294 7.82884C29.5561 7.79096 29.8213 7.76018 30.0249 7.73651C30.2285 7.71046 30.3764 7.66903 30.4688 7.61222C30.5611 7.5554 30.6072 7.46307 30.6072 7.33523V7.31037C30.6072 7.00024 30.5196 6.75994 30.3445 6.58949C30.1716 6.41903 29.9136 6.33381 29.5703 6.33381C29.2128 6.33381 28.9311 6.41312 28.7251 6.57173C28.5215 6.72798 28.3807 6.90199 28.3026 7.09375L27.3047 6.86648C27.4231 6.53504 27.5959 6.26752 27.8232 6.06392C28.0528 5.85795 28.3168 5.70881 28.6151 5.61648C28.9134 5.52178 29.227 5.47443 29.5561 5.47443C29.7739 5.47443 30.0047 5.50047 30.2486 5.55256C30.4948 5.60227 30.7244 5.6946 30.9375 5.82955C31.1529 5.96449 31.3293 6.15743 31.4666 6.40838C31.6039 6.65696 31.6726 6.98011 31.6726 7.37784V11H30.6357V10.2543H30.593C30.5244 10.3916 30.4214 10.5265 30.2841 10.6591C30.1468 10.7917 29.9704 10.9018 29.755 10.9893C29.5395 11.0769 29.2815 11.1207 28.9808 11.1207ZM29.2116 10.2685C29.5052 10.2685 29.7562 10.2105 29.9645 10.0945C30.1752 9.97846 30.335 9.82694 30.4439 9.63991C30.5552 9.45052 30.6108 9.24811 30.6108 9.03267V8.32955C30.5729 8.36742 30.4995 8.40294 30.3906 8.43608C30.2841 8.46686 30.1622 8.49408 30.0249 8.51776C29.8875 8.53906 29.7538 8.55919 29.6236 8.57812C29.4934 8.5947 29.3845 8.6089 29.2969 8.62074C29.0909 8.64678 28.9027 8.69058 28.7322 8.75213C28.5642 8.81368 28.4292 8.90246 28.3274 9.01847C28.228 9.1321 28.1783 9.28362 28.1783 9.47301C28.1783 9.7358 28.2753 9.93466 28.4695 10.0696C28.6636 10.2022 28.911 10.2685 29.2116 10.2685Z"
        fill="black"/>
    </mask>
  </defs>
  <g mask="url(#Mask)">
    <rect x="1" y="1" width="36" height="13" rx="2" fill="#FF8A65"/>
    <path
      d="M6.41335 11H5.24858L7.86577 3.72727H9.13352L11.7507 11H10.5859L8.52983 5.0483H8.47301L6.41335 11ZM6.60866 8.15199H10.3871V9.07528H6.60866V8.15199ZM13.7775 3.72727V11H12.7157V3.72727H13.7775ZM15.206 13.0455V5.54545H16.2429V6.42969H16.3317C16.3932 6.31605 16.482 6.18466 16.598 6.03551C16.714 5.88636 16.875 5.75616 17.081 5.64489C17.2869 5.53125 17.5592 5.47443 17.8977 5.47443C18.3381 5.47443 18.7311 5.5857 19.0767 5.80824C19.4223 6.03078 19.6934 6.35156 19.8899 6.7706C20.0888 7.18963 20.1882 7.69389 20.1882 8.28338C20.1882 8.87287 20.09 9.37831 19.8935 9.79972C19.697 10.2187 19.4271 10.5419 19.0838 10.7692C18.7405 10.9941 18.3487 11.1065 17.9084 11.1065C17.5769 11.1065 17.3059 11.0509 17.0952 10.9396C16.8868 10.8284 16.7235 10.6982 16.6051 10.549C16.4867 10.3999 16.3956 10.2673 16.3317 10.1513H16.2678V13.0455H15.206ZM16.2464 8.27273C16.2464 8.65625 16.3021 8.99242 16.4134 9.28125C16.5246 9.57008 16.6856 9.79616 16.8963 9.95952C17.107 10.1205 17.3651 10.201 17.6705 10.201C17.9877 10.201 18.2528 10.117 18.4659 9.94886C18.679 9.77841 18.84 9.54759 18.9489 9.25639C19.0601 8.9652 19.1158 8.63731 19.1158 8.27273C19.1158 7.91288 19.0613 7.58973 18.9524 7.30327C18.8459 7.01681 18.6849 6.79072 18.4695 6.625C18.2564 6.45928 17.9901 6.37642 17.6705 6.37642C17.3627 6.37642 17.1023 6.45573 16.8892 6.61435C16.6785 6.77296 16.5187 6.99432 16.4098 7.27841C16.3009 7.5625 16.2464 7.89394 16.2464 8.27273ZM22.4396 7.76136V11H21.3778V3.72727H22.4254V6.43324H22.4929C22.6207 6.13968 22.8161 5.90649 23.0788 5.73366C23.3416 5.56084 23.6849 5.47443 24.1087 5.47443C24.4827 5.47443 24.8094 5.55137 25.0888 5.70526C25.3705 5.85914 25.5883 6.08878 25.7422 6.39418C25.8984 6.69721 25.9766 7.07599 25.9766 7.53054V11H24.9148V7.65838C24.9148 7.25829 24.8118 6.94815 24.6058 6.72798C24.3999 6.50544 24.1134 6.39418 23.7464 6.39418C23.4955 6.39418 23.2706 6.44744 23.0717 6.55398C22.8752 6.66051 22.7202 6.81676 22.6065 7.02273C22.4953 7.22633 22.4396 7.47254 22.4396 7.76136ZM28.9808 11.1207C28.6352 11.1207 28.3227 11.0568 28.0433 10.929C27.764 10.7988 27.5426 10.6106 27.3793 10.3643C27.2183 10.1181 27.1378 9.81629 27.1378 9.45881C27.1378 9.15104 27.197 8.89773 27.3153 8.69886C27.4337 8.5 27.5935 8.34257 27.7947 8.22656C27.996 8.11056 28.2209 8.02296 28.4695 7.96378C28.718 7.90459 28.9714 7.85961 29.2294 7.82884C29.5561 7.79096 29.8213 7.76018 30.0249 7.73651C30.2285 7.71046 30.3764 7.66903 30.4688 7.61222C30.5611 7.5554 30.6072 7.46307 30.6072 7.33523V7.31037C30.6072 7.00024 30.5196 6.75994 30.3445 6.58949C30.1716 6.41903 29.9136 6.33381 29.5703 6.33381C29.2128 6.33381 28.9311 6.41312 28.7251 6.57173C28.5215 6.72798 28.3807 6.90199 28.3026 7.09375L27.3047 6.86648C27.4231 6.53504 27.5959 6.26752 27.8232 6.06392C28.0528 5.85795 28.3168 5.70881 28.6151 5.61648C28.9134 5.52178 29.227 5.47443 29.5561 5.47443C29.7739 5.47443 30.0047 5.50047 30.2486 5.55256C30.4948 5.60227 30.7244 5.6946 30.9375 5.82955C31.1529 5.96449 31.3293 6.15743 31.4666 6.40838C31.6039 6.65696 31.6726 6.98011 31.6726 7.37784V11H30.6357V10.2543H30.593C30.5244 10.3916 30.4214 10.5265 30.2841 10.6591C30.1468 10.7917 29.9704 10.9018 29.755 10.9893C29.5395 11.0769 29.2815 11.1207 28.9808 11.1207ZM29.2116 10.2685C29.5052 10.2685 29.7562 10.2105 29.9645 10.0945C30.1752 9.97846 30.335 9.82694 30.4439 9.63991C30.5552 9.45052 30.6108 9.24811 30.6108 9.03267V8.32955C30.5729 8.36742 30.4995 8.40294 30.3906 8.43608C30.2841 8.46686 30.1622 8.49408 30.0249 8.51776C29.8875 8.53906 29.7538 8.55919 29.6236 8.57812C29.4934 8.5947 29.3845 8.6089 29.2969 8.62074C29.0909 8.64678 28.9027 8.69058 28.7322 8.75213C28.5642 8.81368 28.4292 8.90246 28.3274 9.01847C28.228 9.1321 28.1783 9.28362 28.1783 9.47301C28.1783 9.7358 28.2753 9.93466 28.4695 10.0696C28.6636 10.2022 28.911 10.2685 29.2116 10.2685Z"
      fill="white"/>
  </g>
</svg>

<svg xmlns="http://www.w3.org/2000/svg" width="38" height="15" fill="none"><defs><mask id="a"><rect width="36" height="13" x="1" y="1" fill="#fff" rx="2"/><path fill="#000" d="M6.413 11H5.25l2.617-7.273h1.268L11.75 11h-1.165L8.53 5.048h-.057zm.196-2.848h3.778v.923H6.61zm7.169-4.425V11h-1.062V3.727zm1.428 9.319v-7.5h1.037v.884h.089q.092-.17.266-.394.174-.225.483-.391.309-.17.817-.17.66 0 1.179.333.517.335.813.963.298.628.298 1.512 0 .885-.294 1.517a2.3 2.3 0 0 1-.81.97 2.1 2.1 0 0 1-1.176.337q-.496 0-.813-.167a1.5 1.5 0 0 1-.49-.391 3 3 0 0 1-.273-.398h-.064v2.895zm1.04-4.773q0 .575.167 1.008.168.434.483.679.317.24.774.241.477 0 .796-.252.32-.255.483-.693a2.7 2.7 0 0 0 .167-.983q0-.54-.164-.97a1.5 1.5 0 0 0-.483-.678q-.32-.249-.799-.249-.461 0-.78.238-.317.238-.48.664a2.8 2.8 0 0 0-.164.995m6.194-.512V11h-1.062V3.727h1.047v2.706h.068q.192-.44.586-.7.394-.258 1.03-.259a2 2 0 0 1 .98.231q.423.231.653.69.235.453.235 1.136V11h-1.062V7.658q0-.6-.31-.93-.308-.334-.859-.334-.375 0-.674.16a1.15 1.15 0 0 0-.465.469q-.167.305-.167.738m6.54 3.36q-.517 0-.937-.192-.418-.195-.664-.565-.24-.37-.241-.905 0-.462.177-.76a1.3 1.3 0 0 1 .48-.472q.302-.174.674-.263t.76-.135l.796-.092q.305-.04.444-.125.138-.085.138-.277V7.31q0-.465-.262-.72-.26-.256-.775-.256-.536 0-.845.238-.306.234-.422.522l-.998-.228a1.9 1.9 0 0 1 .518-.802q.345-.309.792-.448.447-.142.941-.142.327 0 .693.079.369.075.689.277.322.201.529.578.206.373.206.97V11h-1.037v-.746h-.043a1.5 1.5 0 0 1-.309.405 1.6 1.6 0 0 1-.529.33 2.1 2.1 0 0 1-.774.132m.232-.853q.44 0 .753-.174.315-.174.479-.454.167-.285.167-.607V8.33a.55.55 0 0 1-.22.106q-.16.046-.366.082l-.401.06q-.196.024-.327.043-.309.04-.565.131a1 1 0 0 0-.405.266.67.67 0 0 0-.149.455q0 .394.291.597.292.198.743.198"/></mask></defs><g mask="url(#a)"><rect width="36" height="13" x="1" y="1" fill="#FF8A65" rx="2"/><path fill="#fff" d="M6.413 11H5.25l2.617-7.273h1.268L11.75 11h-1.165L8.53 5.048h-.057zm.196-2.848h3.778v.923H6.61zm7.169-4.425V11h-1.062V3.727zm1.428 9.319v-7.5h1.037v.884h.089q.092-.17.266-.394.174-.225.483-.391.309-.17.817-.17.66 0 1.179.333.517.335.813.963.298.628.298 1.512 0 .885-.294 1.517a2.3 2.3 0 0 1-.81.97 2.1 2.1 0 0 1-1.176.337q-.496 0-.813-.167a1.5 1.5 0 0 1-.49-.391 3 3 0 0 1-.273-.398h-.064v2.895zm1.04-4.773q0 .575.167 1.008.168.434.483.679.317.24.774.241.477 0 .796-.252.32-.255.483-.693a2.7 2.7 0 0 0 .167-.983q0-.54-.164-.97a1.5 1.5 0 0 0-.483-.678q-.32-.249-.799-.249-.461 0-.78.238-.317.238-.48.664a2.8 2.8 0 0 0-.164.995m6.194-.512V11h-1.062V3.727h1.047v2.706h.068q.192-.44.586-.7.394-.258 1.03-.259a2 2 0 0 1 .98.231q.423.231.653.69.235.453.235 1.136V11h-1.062V7.658q0-.6-.31-.93-.308-.334-.859-.334-.375 0-.674.16a1.15 1.15 0 0 0-.465.469q-.167.305-.167.738m6.54 3.36q-.517 0-.937-.192-.418-.195-.664-.565-.24-.37-.241-.905 0-.462.177-.76a1.3 1.3 0 0 1 .48-.472q.302-.174.674-.263t.76-.135l.796-.092q.305-.04.444-.125.138-.085.138-.277V7.31q0-.465-.262-.72-.26-.256-.775-.256-.536 0-.845.238-.306.234-.422.522l-.998-.228a1.9 1.9 0 0 1 .518-.802q.345-.309.792-.448.447-.142.941-.142.327 0 .693.079.369.075.689.277.322.201.529.578.206.373.206.97V11h-1.037v-.746h-.043a1.5 1.5 0 0 1-.309.405 1.6 1.6 0 0 1-.529.33 2.1 2.1 0 0 1-.774.132m.232-.853q.44 0 .753-.174.315-.174.479-.454.167-.285.167-.607V8.33a.55.55 0 0 1-.22.106q-.16.046-.366.082l-.401.06q-.196.024-.327.043-.309.04-.565.131a1 1 0 0 0-.405.266.67.67 0 0 0-.149.455q0 .394.291.597.292.198.743.198"/></g></svg>
